X: 113
T: Arı Olsam Bakmaz İdim Balına
C: Necmi Pişkin
O: Turkey
F: http://compmusic.upf.edu/node/140
N: karcigar--sarki--aksak--ari_olsam--necmi_piskin
N: makam= karcigar
N: form= sarki
N: usul= aksak = 9/8
M: 9/8
L: 1/16
K: C _2/4B _3/4e ^3/4f 
Q: 1/4=228
%%MIDI tuningsystem comma53
a4 a4 a4 _b2a2 g2 | _b3ag2 f2g2 a2f2 e2d2  | \
w:  ARANAĞME  |   | 
f2g2 f2e2 d2c2 f2e2 d2 | 
w:   | 
d6 g2f2 g2a6  | a4 a4 a4 _b2a2 g2 | _b3ag2 f2g2 a2f2 e2d2  | \
w:   |  ARANAĞME  |   | 
f2g2 f2e2 d2c2 f2e2 d2 | 
w:   | 
d6 c2B2 c2d6  | e4 e4 e4 e2d2 c2 | B2 c2d4e2 d2c2 B2A2  | \
w:   |   |   | 
B2c2 B2A2 B2c2 d2B2 A2 | 
w:   | 
A6 c2B2 c2d6  | e4 e4 e4 e2d2 c2 | B2 c2d4e2 d2c2 B2A2  | \
w:   |   |   | 
B2c2 B2A2 B2c2 d2B2 A2 | 
w:   | 
A6 g2f2 g2a6  | a2a6 a4 _b2a2 g2 | _b2 a2g2 f2g2 g2f2 e2d2  | \
w:   |  A rı  ol sam   |  bak *  maz  *  i *  dim   | 
f2g2 f2e2 d2c2 f2e2 d2 | 
w:  ba lı  | 
d6 g2f2 g2a6  | a2a6 a4 _b2a2 g2 | _b2 a2g2 f2g2 g2f2 e2d2  | \
w:  na   SAZ  |  A rı  ol sam   |  bak *  maz  *  i *  dim   | 
f2g2 f2e2 d2c2 f2e2 d2 | 
w:  ba lı  | 
d6 c2B2 c2d6  | e4 e4 e4 e2d2 c2 | B2 c2d4e2 d2c2 B2A2  | \
w:  na   SAZ  |  Yol cu  ol sam   |  uğ *  ra maz *  dım   | 
B2c2 B2A2 B2c2 d2B2 A2 | 
w:  yo lu  | 
A6 c2B2 c2d6  | e4 e4 e4 e2d2 c2 | B2 c2d4e2 d2c2 B2A2  | \
w:  na   SAZ  |  Yol cu  ol sam   |  uğ *  ra maz *  dım   | 
B2c2 B2A2 B2c2 d2B2 A2 | 
w:  yo lu  | 
A6 g2f2 g2a6  | a4 a4 a4 _b2a2 g2 | _b2 a2g2 f2g2 g2f2 e2d2  | \
w:  na   SAZ  |  Vak ti  geç miş   |  bir  *  gon *  ca *  nın   | 
f2g2 f2e2 d2c2 f2e2 d2 | 
w:  da lı  | 
d6 g2f2 g2a6  | a4 a4 a4 _b2a2 g2 | _b2 a2g2 f2g2 g2f2 e2d2  | \
w:  na   SAZ  |  Vak ti  geç miş   |  bir  *  gon *  ca *  nın   | 
f2g2 f2e2 d2c2 f2e2 d2 | 
w:  da lı  | 
d6 c2B2 c2d6  | e4 e4 e4 e2d2 c2 | B2 c2d4e2 d2c2 B2A2  | \
w:  na   SAZ  |  Bül bül  ol sam   |  kon *  maz  u *  çar   | 
B2c2 B2A2 B2c2 d2B2 A2 | 
w:  gi der  | 
A6 c2B2 c2d6  | e4 e4 e4 e2d2 c2 | B2 c2d4e2 d2c2 B2A2  | \
w:  dim   SAZ  |  Bül bül  ol sam   |  kon *  maz  u *  çar   | 
B2c2 B2A2 B2c2 d2B2 A2 | 
w:  gi der  | 
A6 g2f2 g2a6  | a4 a4 a4 _b2a2 g2 | _b3ag2 f2g2 a2f2 e2d2  | \
w:  dim   SAZ  |  ARANAĞME  |   | 
f2g2 f2e2 d2c2 f2e2 d2 | 
w:   | 
d6 g2f2 g2a6  | a4 a4 a4 _b2a2 g2 | _b3ag2 f2g2 a2f2 e2d2  | \
w:   |  ARANAĞME  |   | 
f2g2 f2e2 d2c2 f2e2 d2 | 
w:   | 
d6 c2B2 c2d6  | e4 e4 e4 e2d2 c2 | B2 c2d4e2 d2c2 B2A2  | \
w:   |   |   | 
B2c2 B2A2 B2c2 d2B2 A2 | 
w:   | 
A6 c2B2 c2d6  | e4 e4 e4 e2d2 c2 | B2 c2d4e2 d2c2 B2A2  | \
w:   |   |   | 
B2c2 B2A2 B2c2 d2B2 A2 | 
w:   | 
A6 g2f2 g2a6  | a2a6 a4 _b2a2 g2 | _b2 a2g2 f2g2 g2f2 e2d2  | \
w:   |  A rı  ol sam   |  bak *  maz  *  i *  dim   | 
f2g2 f2e2 d2c2 f2e2 d2 | 
w:  ba lı  | 
d6 g2f2 g2a6  | a2a6 a4 _b2a2 g2 | _b2 a2g2 f2g2 g2f2 e2d2  | \
w:  na   SAZ  |  A rı  ol sam   |  bak *  maz  *  i *  dim   | 
f2g2 f2e2 d2c2 f2e2 d2 | 
w:  ba lı  | 
d6 c2B2 c2d6  | e4 e4 e4 e2d2 c2 | B2 c2d4e2 d2c2 B2A2  | \
w:  na   SAZ  |  Yol cu  ol sam   |  uğ *  ra maz *  dım   | 
B2c2 B2A2 B2c2 d2B2 A2 | 
w:  yo lu  | 
A6 c2B2 c2d6  | e4 e4 e4 e2d2 c2 | B2 c2d4e2 d2c2 B2A2  | \
w:  na   SAZ  |  Yol cu  ol sam   |  uğ *  ra maz *  dım   | 
B2c2 B2A2 B2c2 d2B2 A2 | 
w:  yo lu  | 
A6 g2f2 g2a6  | a4 a4 a4 _b2a2 g2 | _b2 a2g2 f2g2 g2f2 e2d2  | \
w:  na   SAZ  |  Vak ti  geç miş   |  bir  *  gon *  ca *  nın   | 
f2g2 f2e2 d2c2 f2e2 d2 | 
w:  da lı  | 
d6 g2f2 g2a6  | a4 a4 a4 _b2a2 g2 | _b2 a2g2 f2g2 g2f2 e2d2  | \
w:  na   SAZ  |  Vak ti  geç miş   |  bir  *  gon *  ca *  nın   | 
f2g2 f2e2 d2c2 f2e2 d2 | 
w:  da lı  | 
d6 c2B2 c2d6  | e4 e4 e4 e2d2 c2 | B2 c2d4e2 d2c2 B2A2  | \
w:  na   SAZ  |  Bül bül  ol sam   |  kon *  maz  u *  çar   | 
B2c2 B2A2 B2c2 d2B2 A2 | 
w:  gi der  | 
A6 |
w:  dim    | 


